X:1333
T:Behind the Haystack
M:6/8
L:1/8
Q:1/4=190
C:Trad
R:jig
K:D
A|d2 e fdB|d2 e fdB|AFE EFE|AFE EFA|!
|d2 e fdB|d2 e fdB|AFD DED|AFD D2:|!
A|B3  BAF|ABc dcB|AFE EFE|AFE EFA|!
B3  BAF|ABc dcB|AFD DED|AFD D2:|!
f|g3 f3|ede fdB|AFE EFE|AFE EFA|!
gbg faf|ede fdB|AFD DED|AFD D2:|!
% Output from ABC2Win  Version 2.1 h on 12/18/99


